X: 9467
T: Darby The Driver
R: jig
M: 6/8
K: Dmajor
|:A/G/|EAA ABd|ege dBA|GEG G2 B|dBA GED|
EAA ABd|ege def|g2 d edB|BAG A2:|
|:d|eag e2 d|eaa age|gag d2 d|egg ged|
eag e2 d|e aa age|g2 d edB|BGG A2:|

